X: 37360
T: Slate Hill
R: reel
M: 4/4
K: Adorian
EA ~A2 AGEG|A2 Bd ~e3 a|ageg d2 z e|dBAB GEDG|
EA ~A2 AGEG|A2 Bd ~e3 a|ageg dBGB|1 cedB A2 A/A/A:|2 cedB ABcd||
ea ~a2 cAcd|eaag egdG|BG ~G2 AGEG|D/D/D BD GABd|
ea ~a2 cAcd|eaag ~e3 a|ageg dBGB|cedB ABcd|
ea ~a2 cAcd|eaag egdG|BG ~G2 AGEG|D/D/D BD GABG|
EA ~A2 AGEG|A2 Bd ~e3 a|ageg dBGB|cedB A3 z||

